X:121
T:Hornpipe TS.121
M:C|
L:1/8
Q:1/2=90
S:Thomas Sands’ MS,1810,Lincolnshire
R:.hornpipe
O:England;Lincolnshire
Z:vmp.Ruairidh Greig, 2011
K:D
dcde dAFA|Bdce dcBA|BGFG AFdF|EFGA GFED|
dcde fdAF|EFGA Bcde|cAed cBA^G|A2A>AA2z2:|
|:A2A2 ABcd|efge dcBA|BGFG AFdF|EFGA GFED|
dAFA GBEG|FAdf ecAf|gabg fedc|d2d>dd2″rest added”z2:|]

